packages/kaspersky-hexa-ui-icons/src/iconsSVGs/48/RescueDiscCd.svg

<svg xmlns="http://www.w3.org/2000/svg" width="48" height="48" fill="none" viewBox="0 0 48 48"><path fill="currentColor" fill-rule="evenodd" d="M24 0C10.7452 0 0 10.7452 0 24s10.7452 24 24 24 24-10.7452 24-24S37.2548 0 24 0m18.72 12.46-10.84 5.4a10.23 10.23 0 0 0-1.74-1.74l5.4-10.84a22 22 0 0 1 7.18 7.18M16 24c0-4.4183 3.5817-8 8-8s8 3.5817 8 8-3.5817 8-8 8-8-3.5817-8-8m8-22a21.83 21.83 0 0 1 9.8 2.31l-5.36 10.74c-3.8418-1.8929-8.4624-1.1291-11.4908 1.8992-3.0283 3.0284-3.7921 7.649-1.8992 11.4908L4.31 33.8c-3.3925-6.8185-3.0173-14.9065.992-21.3816S16.3842 2.0024 24 2M5.28 35.54l10.84-5.4a10.23 10.23 0 0 0 1.74 1.74l-5.4 10.84a22 22 0 0 1-7.18-7.18M24 46a21.83 21.83 0 0 1-9.8-2.31l5.36-10.74c3.8459 1.9304 8.4954 1.184 11.5439-1.8531S34.9161 23.413 33 19.56l10.74-5.36c3.3965 6.8264 3.0162 14.9248-1.0051 21.4029S31.6247 46.015 24 46m6-22c0-3.3137-2.6863-6-6-6s-6 2.6863-6 6 2.6863 6 6 6 6-2.6863 6-6m-10 0c0-2.2091 1.7909-4 4-4s4 1.7909 4 4-1.7909 4-4 4-4-1.7909-4-4" clip-rule="evenodd"/></svg>

<svg width="48" height="48" viewBox="0 0 48 48" fill="none" xmlns="http://www.w3.org/2000/svg">
<path fill-rule="evenodd" clip-rule="evenodd" d="M24 0C10.7452 0 0 10.7452 0 24C0 37.2548 10.7452 48 24 48C37.2548 48 48 37.2548 48 24C48 10.7452 37.2548 0 24 0ZM42.72 12.46L31.88 17.86C31.3721 17.2121 30.7879 16.6279 30.14 16.12L35.54 5.28C38.4605 7.08072 40.9193 9.53953 42.72 12.46ZM16 24C16 19.5817 19.5817 16 24 16C28.4183 16 32 19.5817 32 24C32 28.4183 28.4183 32 24 32C19.5817 32 16 28.4183 16 24ZM24 2C27.402 1.99585 30.758 2.78689 33.8 4.31L28.44 15.05C24.5982 13.1571 19.9776 13.9209 16.9492 16.9492C13.9209 19.9776 13.1571 24.5982 15.05 28.44L4.31 33.8C0.917497 26.9815 1.29274 18.8935 5.30199 12.4184C9.31125 5.9433 16.3842 2.00232 24 2ZM5.28 35.54L16.12 30.14C16.6279 30.7879 17.2121 31.3721 17.86 31.88L12.46 42.72C9.53953 40.9193 7.08072 38.4605 5.28 35.54ZM24 46C20.598 46.0041 17.242 45.2131 14.2 43.69L19.56 32.95C23.4059 34.8804 28.0554 34.134 31.1039 31.0969C34.1524 28.0598 34.9161 23.413 33 19.56L43.74 14.2C47.1365 21.0264 46.7562 29.1248 42.7349 35.6029C38.7136 42.081 31.6247 46.015 24 46ZM30 24C30 20.6863 27.3137 18 24 18C20.6863 18 18 20.6863 18 24C18 27.3137 20.6863 30 24 30C27.3137 30 30 27.3137 30 24ZM20 24C20 21.7909 21.7909 20 24 20C26.2091 20 28 21.7909 28 24C28 26.2091 26.2091 28 24 28C21.7909 28 20 26.2091 20 24Z"  fill="currentColor"/>
</svg>
